src/16/actions/document-preview-archive.svg

<svg xmlns="http://www.w3.org/2000/svg" viewBox="0 0 16 16"><path d="M3 2v12h7v-1H4V3h8v6h1V2H3zm5 3C6.338 5 5 6.338 5 8s1.338 3 3 3c.65 0 1.26-.214 1.75-.563L12.281 13l.719-.719-2.563-2.531C10.787 9.26 11 8.65 11 8c0-1.662-1.338-3-3-3zm0 1c1.108 0 2 .892 2 2s-.892 2-2 2-2-.892-2-2 .892-2 2-2z" fill="currentColor" color="#5d656b"/></svg>

<svg xmlns="http://www.w3.org/2000/svg" viewBox="0 0 16 16">
  <defs id="defs3051">
    <style type="text/css" id="current-color-scheme">
      .ColorScheme-Text {
        color:#5d656b;
      }
      </style>
  </defs>
 <path style="fill:currentColor;fill-opacity:1;stroke:none" 
     d="M 3 2 L 3 3 L 3 13 L 3 14 L 8 14 L 9 14 L 10 14 L 10 13 L 9 13 L 8 13 L 4 13 L 4 3 L 6 3 L 7 3 L 9 3 L 11 3 L 12 3 L 12 9 L 13 9 L 13 2 L 12 2 L 9 2 L 7 2 L 6 2 L 3 2 z M 8 5 C 6.338 5 5 6.338 5 8 C 5 9.662 6.338 11 8 11 C 8.64939 11 9.26003 10.7855 9.75 10.4375 L 12.28125 13 L 13 12.28125 L 10.4375 9.75 C 10.78555 9.2601 11 8.6494 11 8 C 11 6.338 9.662 5 8 5 z M 8 6 C 9.108 6 10 6.892 10 8 C 10 9.108 9.108 10 8 10 C 6.892 10 6 9.108 6 8 C 6 6.892 6.892 6 8 6 z "
     class="ColorScheme-Text"
     />
</svg>
